X:1
T:Apertamente dicea
T:Apertamente dicea
T:Enrico Radesca di Foggia
T:Source : Canzonette, madrigale & arie---Libro I---Milano---Heredes S.Tini & F.Lomazzi---1606. Editor : André Vierendeels (15/04/14).
C:Enrico Radesca di Foggia
%%score [ 1 2 ] 3
L:1/8
Q:1/4=85
M:3/4
K:C
V:1 treble nm="Soprano" snm="S"
V:2 bass nm="Bass" snm="B"
V:3 bass nm="MusicXML Part"
V:1
 d2 e2 c2 | d4 d2 | B2 c2 d2 | B4 B2 | c2 c2 d2 | B3 c A2 | G2 A2 A2 | G6 :: B2 c2 d2 | e4 e2 | %10
w: A- per- ta-|men- te|di- cea la|gen- te,|l'al- to preg-|gio di quest'|al fin sen|va:|sua gran bel-|ta- de,|
w: I va- ghi|fio- ri,|i bei co-|lo- ri,|di che la|guen- cia'un tem-|po'al- ma fio-|ri,|im- pal- li-|di- te|
w: In tal ma-|nie- ra|Ma- ti- no'e|se- ra|Don- na sen-|to par- lar|do- vun- que'io|vo,|ne v'en- tr'in|co- re|
w: Sot- to sue|ci- glia,|O me- ra-|vi- glia,|il bel fo-|co d'A- mor|non ar- de|piu:|sol vi si|scor- ge|
w: Ma v'em- pia'il|pet- to|dol- ce di-|let- to,|che men- tre|fiam- ma da|vo- stri'oc- ch'ys-|ci,|co- si s'ac-|ce- de|
w: Tra qua- l'in|se- no|io pur non|me- no|og- gi ser-|bo'il de- sir,|che m'in- fiam-|mo:|e tut- to'ar-|den- te|
 d2 B2 B2 | A4 A2 | A2 B2 c2 | d3 c B2 | B2 A3 A | G6 :| %16
w: per tropp' e-|ta- de,|qua- si Fe-|bo nel mar|tos- to ca-|dra.|
w: son si smar-|ri- ti|co- me ro-|sa di Mag-|gio'a mez- zo'il|di.|
w: per- cio do-|lo- re,|co- sa mor-|ta- l'e- ter-|na'es- ser non|puo.|
w: lu- me, che|por- ge|se- gno del|grand' ar- dor,|che'i- ni gia|fu.|
w: o- gn'huom cor-|te- se,|ch'a rai del|vo- stro vol-|to'in- ce- ne-|ri/.|
w: e- ter- na-|men- te|Rei- na del|mi- o cor|v'in- chi- ne-|ro.|
V:2
 G,2 E,2 A,2 | G,4 G,2 | G,2 A,2 ^F,2 | G,4 G,2 | F,2 F,2 D,2 | E,3 C, D,2 | B,,2 C,2 D,2 | G,,6 :: %8
w: A- per- ta-|men- te|di- cea la|gen- te,|l'al- to preg-|gio di quest'|al fin sen|va:|
w: In va- ghi|fio- ri,|i bei co-|lo- ri,|di che la|guen- cia'un tem-|po'al- ma fio-|ri,|
w: In tal ma-|nie- ra|Ma- ti- no'e|se- ra|Don- na sen-|to par- lar|do- vun- que'io-|vo,|
w: Sot- to sue|ci- glia,|O me- ra-|vi- glia,|il bel fo-|co d'A- mor|non ar- de|piu:|
w: Ma v'em- pia'il|pet- to|dol- ce di-|let- to,|che men- tre|fiam- ma da|vo- stri'oc- ch'ys-|ci.|
w: Tra qua- l'in|se- no|io pur non|me- no|og- gi ser-|bo'il de- sir,|che m'in- fiam-|mo:|
 G,2 F,2 D,2 | C,4 C,2 | D,2 E,2 E,2 | A,,4 A,,2 | A,2 G,2 C,2 | G,3 A, G,2 | B,,2 C,2 D,2 | %15
w: sua- gran bel-|ta- de,|per tropp' e|ta- de,|qua- si Fe-|bo nel mar|tos- to ca-|
w: in pal- li-|di- te|son si sma-|ri- ti|co- me ro-|sa di Mag-|gio'a mez- zo'il|
w: ne v'en- tr'in|co- re|per cio do-|lo- re,|co- sa mor-|ta- l'e- ter-|na'es- ser non|
w: sol vi si|scor- ge|lu- me, che|por- ge|se- gno del|grand' ar- dor,|che'i- ni gia|
w: co- si s'ac-|ce- de|o- gn'huom cor-|te- se,|ch'a rai del|vo- stro vol-|to'in- ce- ne-|
w: e tut- to'ar-|den- te|e- ter- na-|men- te|Rei- na del|mi- o cor|v'in- chi- ne-|
 G,,6 :| %16
w: dra.|
w: di.|
w: puo.|
w: fu.|
w: ri.|
w: ro.|
V:3
 G,2 E,2 A,2 | G,6 | G,2 A,2 D,2 | G,6 | F,4 D,2 | E,3 C, D,2 | B,,2 C,2 D,2 | G,,6 :: %8
 G,2 F,2 D,2 | C,6 | D,2 E,4 | A,,6 | A,2 G,2 C,2 | G,3 A, G,2 | B,,2 C,2 D,2 | G,,6 :| %16

